website/public/Images/svg/cloud.svg

<svg width="32" height="24" viewBox="0 0 32 24" fill="none" xmlns="http://www.w3.org/2000/svg">
<g clip-path="url(#clip0)">
<path d="M25.6123 15.8016H20.573V12.9304C20.5766 12.8914 20.5766 12.8523 20.573 12.8133V12.7841C20.5687 12.7637 20.5614 12.744 20.5513 12.7255C20.5523 12.7168 20.5523 12.7079 20.5513 12.6992C20.5426 12.6871 20.5322 12.6762 20.5202 12.667L20.4985 12.6523H20.455H20.4115H20.3649H20.3431L20.2934 12.6816L20.2686 12.6992C20.2411 12.7199 20.2151 12.7424 20.1909 12.7665L15.2853 17.865C15.2539 17.898 15.2267 17.9343 15.2045 17.9733C15.2033 17.9821 15.2033 17.9909 15.2045 17.9997C15.1869 18.0295 15.1723 18.0609 15.161 18.0933C15.161 18.0933 15.161 18.1109 15.161 18.1167C15.1507 18.1542 15.1435 18.1924 15.1393 18.2309C15.1304 18.3186 15.141 18.4071 15.1704 18.4907C15.1998 18.5744 15.2474 18.6514 15.3101 18.7167L20.2064 23.6924C20.4363 23.9294 20.629 23.8562 20.629 23.5372V20.6689H25.6682C25.833 20.6689 25.991 20.6073 26.1076 20.4975C26.2241 20.3877 26.2895 20.2388 26.2895 20.0836V16.387C26.2899 16.3055 26.2722 16.2248 26.2375 16.1501C26.2028 16.0754 26.152 16.0084 26.0882 15.9533C26.0245 15.8982 25.9492 15.8562 25.8672 15.8301C25.7853 15.804 25.6984 15.7943 25.6123 15.8016Z" fill="url(#paint0_linear)"/>
<path d="M24.6461 4.68289C24.0172 4.68199 23.3908 4.75674 22.782 4.90533C22.1506 3.26005 20.9368 1.86998 19.3448 0.969151C17.7528 0.0683254 15.88 -0.288236 14.0416 -0.0404831C12.2033 0.20727 10.5117 1.0442 9.25168 2.32938C7.99167 3.61457 7.24017 5.26951 7.12376 7.01556C6.85838 6.97827 6.59054 6.95873 6.32222 6.95704C5.49837 6.91397 4.67385 7.02965 3.89908 7.29701C3.1243 7.56437 2.41556 7.97779 1.81617 8.51199C1.21678 9.04619 0.739345 9.68997 0.413053 10.4039C0.0867606 11.1179 -0.081543 11.887 -0.081543 12.6644C-0.081543 13.4417 0.0867606 14.2108 0.413053 14.9248C0.739345 15.6387 1.21678 16.2825 1.81617 16.8167C2.41556 17.3509 3.1243 17.7643 3.89908 18.0317C4.67385 18.299 5.49837 18.4147 6.32222 18.3717H13.1976C13.1752 17.7513 13.409 17.147 13.85 16.6858L18.7556 11.5873C18.9582 11.3667 19.2079 11.1888 19.4884 11.0652C19.769 10.9417 20.074 10.8752 20.3836 10.8702C20.6619 10.873 20.9368 10.9288 21.1916 11.0345C21.4464 11.1401 21.6758 11.2933 21.866 11.4847C22.0562 11.6762 22.2032 11.902 22.2982 12.1486C22.3931 12.3951 22.4341 12.6572 22.4185 12.919V14.0312H25.5937C26.2528 14.0312 26.885 14.2779 27.3511 14.717C27.8173 15.1561 28.0791 15.7516 28.0791 16.3726V17.5434C29.5015 16.8184 30.6269 15.6675 31.2773 14.2726C31.9278 12.8777 32.0661 11.3183 31.6705 9.84103C31.2749 8.36375 30.3679 7.05283 29.093 6.11549C27.818 5.17815 26.2478 4.66787 24.6306 4.66533L24.6461 4.68289Z" fill="url(#paint1_linear)"/>
</g>
<defs>
<linearGradient id="paint0_linear" x1="20.7129" y1="12.6523" x2="20.7129" y2="23.832" gradientUnits="userSpaceOnUse">
<stop stop-color="#FFACD9"/>
<stop offset="1" stop-color="#4F0D30"/>
</linearGradient>
<linearGradient id="paint1_linear" x1="15.905" y1="-0.117188" x2="15.905" y2="18.3805" gradientUnits="userSpaceOnUse">
<stop stop-color="#FFACD9"/>
<stop offset="1" stop-color="#4F0D30"/>
</linearGradient>
<clipPath id="clip0">
<rect width="32" height="24" fill="white"/>
</clipPath>
</defs>
</svg>

<svg xmlns="http://www.w3.org/2000/svg" width="32" height="24" fill="none" xmlns:v="https://vecta.io/nano"><g clip-path="url(#C)"><path d="M25.612 15.802h-5.039V12.93c.004-.039.004-.078 0-.117v-.029c-.004-.02-.012-.04-.022-.059.001-.009.001-.018 0-.026-.009-.012-.019-.023-.031-.032l-.022-.015h-.044-.043-.047-.022l-.05.029-.025.018c-.027.021-.053.043-.078.067l-4.906 5.098c-.031.033-.059.069-.081.108-.001.009-.001.018 0 .026-.018.03-.032.061-.043.094v.023a.73.73 0 0 0-.022.114.6.6 0 0 0 .031.26c.029.084.077.161.14.226l4.896 4.976c.23.237.423.164.423-.155v-2.868h5.039a.64.64 0 0 0 .439-.171.57.57 0 0 0 .182-.414v-3.697c0-.082-.017-.162-.052-.237s-.085-.142-.149-.197a.63.63 0 0 0-.221-.123.66.66 0 0 0-.255-.028z" fill="url(#A)"/><path d="M24.646 4.683a7.82 7.82 0 0 0-1.864.222C22.151 3.26 20.937 1.87 19.345.969S15.88-.288 14.042-.04s-3.53 1.085-4.79 2.37S7.24 5.27 7.124 7.016c-.265-.037-.533-.057-.802-.059a6.41 6.41 0 0 0-2.423.34 6.14 6.14 0 0 0-2.083 1.215C1.217 9.046.739 9.69.413 10.404s-.495 1.483-.495 2.261.168 1.546.495 2.26.804 1.358 1.403 1.892a6.14 6.14 0 0 0 2.083 1.215c.775.267 1.599.383 2.423.34h6.875c-.022-.62.211-1.225.652-1.686l4.906-5.098c.203-.221.452-.399.733-.522s.586-.19.895-.195c.278.003.553.059.808.164s.484.259.674.45.337.417.432.664a1.84 1.84 0 0 1 .12.77v1.112h3.175c.659 0 1.291.247 1.757.686s.728 1.035.728 1.656v1.171c1.422-.725 2.548-1.876 3.198-3.271s.789-2.954.393-4.432-1.303-2.788-2.578-3.726-2.845-1.448-4.462-1.45l.015.018z" fill="url(#B)"/></g><defs><linearGradient id="A" x1="20.713" y1="12.652" x2="20.713" y2="23.832" gradientUnits="userSpaceOnUse"><stop stop-color="#ffacd9"/><stop offset="1" stop-color="#4f0d30"/></linearGradient><linearGradient id="B" x1="15.905" y1="-.117" x2="15.905" y2="18.381" gradientUnits="userSpaceOnUse"><stop stop-color="#ffacd9"/><stop offset="1" stop-color="#4f0d30"/></linearGradient><clipPath id="C"><path fill="#fff" d="M0 0h32v24H0z"/></clipPath></defs></svg>
